ZUCCAL
CUT["Dem Nebenbuhler"
    MUSCHT MIR NICHTS NI UEBEL AUFA NEHMA]
REG[Europa, Mitteleuropa, Tirol]
KEY[Z1221  16  F 3/4]
MEL[3_4_  5__.+1_7_6_  6_5_5_5_
    3_3_  5_4_4_4_2_2_  6_5_5_5_
    3_4_  5__.+1_7_6_  6_5_5__
    3_5_  5_4_6_4_2_-7_  1__0__
    3_5_  5_4_4__2_.7  +1__5__
    3_.5  5_4_4__2_.7  +1__5__
    3_4_  5__.+1_7_6_  6_5_5__
    3_5_  5_4_6_4_2_-7_  1__0__ //] >>
FCT[Liebes - Lied]
